Yaru++/actions/16/standard-connector.svg

<svg viewBox="0 0 22 22" xmlns="http://www.w3.org/2000/svg"><g fill="#808080"><path d="m5 4v1h6v12 1h6v-1h-5v-13h-1z"/><path d="m4.5 3a1.4999979 1.5 0 0 0 -1.5 1.5 1.4999979 1.5 0 0 0 1.5 1.5 1.4999979 1.5 0 0 0 1.5-1.5 1.4999979 1.5 0 0 0 -1.5-1.5zm0 1a.5.5 0 0 1 .5.5.5.5 0 0 1 -.5.5.5.5 0 0 1 -.5-.5.5.5 0 0 1 .5-.5zm13 12a1.4999979 1.5 0 0 0 -1.5 1.5 1.4999979 1.5 0 0 0 1.5 1.5 1.4999979 1.5 0 0 0 1.5-1.5 1.4999979 1.5 0 0 0 -1.5-1.5zm0 1a.5.5 0 0 1 .5.5.5.5 0 0 1 -.5.5.5.5 0 0 1 -.5-.5.5.5 0 0 1 .5-.5z"/></g></svg>

<svg xmlns="http://www.w3.org/2000/svg" viewBox="0 0 22 22">
 <defs>
  <style id="current-color-scheme" type="text/css">
   .ColorScheme-Text { color:#808080; } .ColorScheme-Highlight { color:#1d99f3; }
  </style>
 </defs>
 <path fill="#808080" class="ColorScheme-Text" d="M 5 4 L 5 5 L 11 5 L 11 17 L 11 18 L 17 18 L 17 17 L 12 17 L 12 4 L 11 4 L 5 4 z"/>
 <path fill="#808080" class="ColorScheme-Highlight" d="M 4.5 3 A 1.4999979 1.5 0 0 0 3 4.5 A 1.4999979 1.5 0 0 0 4.5 6 A 1.4999979 1.5 0 0 0 6 4.5 A 1.4999979 1.5 0 0 0 4.5 3 z M 4.5 4 A 0.5 0.5 0 0 1 5 4.5 A 0.5 0.5 0 0 1 4.5 5 A 0.5 0.5 0 0 1 4 4.5 A 0.5 0.5 0 0 1 4.5 4 z M 17.5 16 A 1.4999979 1.5 0 0 0 16 17.5 A 1.4999979 1.5 0 0 0 17.5 19 A 1.4999979 1.5 0 0 0 19 17.5 A 1.4999979 1.5 0 0 0 17.5 16 z M 17.5 17 A 0.5 0.5 0 0 1 18 17.5 A 0.5 0.5 0 0 1 17.5 18 A 0.5 0.5 0 0 1 17 17.5 A 0.5 0.5 0 0 1 17.5 17 z"/>
</svg>
